symbols/web/filter_3/materialsymbolssharp/filter_3_wght700gradN25_48px.svg

<svg xmlns="http://www.w3.org/2000/svg" height="48" width="48"><path d="M20.65 30.25H33.1v-20H20.65v3.4h8.95v5.15h-4.7v2.9h4.7v5.05h-8.95ZM9.6 38.4V2.1h36.3v36.3Zm4.6-4.6h27.1V6.7H14.2ZM2.1 45.9V9.6h4.65v31.65H38.4v4.65Zm12.1-12.1V6.7v27.1Z"/></svg>

<svg xmlns="http://www.w3.org/2000/svg" height="48" width="48"><path d="M20.65 30.25H33.1V10.25H20.65V13.65H29.6V18.8H24.9V21.7H29.6V26.75H20.65ZM9.6 38.4V2.1H45.9V38.4ZM14.2 33.8H41.3V6.7H14.2ZM2.1 45.9V9.6H6.75V41.25H38.4V45.9ZM14.2 33.8V6.7V33.8Z"/></svg>
